;FLAVOR:Marlin
;TIME:2388
;Filament used: 6.20527m
;Layer height: 0.6
;Generated with Cura_SteamEngine 3.2.1
M190 S60
M104 S200
M109 S200
M82 ;absolute extrusion mode
G21 ;metric values
G90 ;absolute positioning
M82 ;set extruder to absolute mode
M107 ;start with the fan off
G28 X0 Y0 ;move X/Y to min endstops
G28 Z0 ;move Z to min endstops
G1 Z15.0 F9000 ;move the platform down 15mm
G92 E0 ;zero the extruded length
G1 F200 E3 ;extrude 3mm of feed stock
G92 E0 ;zero the extruded length again
G1 F9000
;Put printing message on LCD screen
M117 Printing...
;LAYER_COUNT:55
;LAYER:0
M107
G0 F3600 X54.56 Y46.814 Z0.3
;TYPE:SKIRT
G1 F1800 X54.947 Y46.488 E0.05049
G1 X55.38 Y46.227 E0.10094
G1 X55.848 Y46.038 E0.1513
G1 X56.17 Y45.955 E0.18448
G1 X60.999 Y44.969 E0.67626
G1 X61.213 Y44.933 E0.69791
G1 X67.919 Y44.031 E1.37306
G1 X73.279 Y42.972 E1.91823
G1 X75.932 Y42.33 E2.19058
G1 X81.207 Y40.814 E2.73823
G1 X86.362 Y39.01 E3.28319
G1 X92.015 Y36.659 E3.89408
G1 X92.479 Y36.507 E3.9428
G1 X92.861 Y36.413 E3.98205
G1 X93.36 Y36.331 E4.03251
G1 X93.626 Y36.32 E4.05908
G1 X111.158 Y36.319 E5.80843
G1 X111.662 Y36.359 E5.85887
G1 X111.996 Y36.431 E5.89296
G1 X112.508 Y36.57 E5.9459
G1 X112.921 Y36.713 E5.98951
G1 X117.49 Y38.654 E6.48484
G1 X122.67 Y40.54 E7.0349
G1 X127.921 Y42.124 E7.58216
G1 X133.269 Y43.412 E8.13105
G1 X135.904 Y43.927 E8.39894
G1 X142.864 Y44.947 E9.10083
G1 X143.357 Y45.059 E9.15128
G1 X143.785 Y45.228 E9.19719
G1 X144.216 Y45.435 E9.2449
G1 X144.653 Y45.69 E9.29538
G1 X145.045 Y46.009 E9.34581
G1 X145.324 Y46.313 E9.38698
G1 X145.576 Y46.626 E9.42708
G1 X145.861 Y47.044 E9.47756
G1 X146.155 Y47.736 E9.55258
G1 X146.256 Y48.082 E9.58855
G1 X146.359 Y48.577 E9.639
G1 X146.384 Y48.98 E9.67928
G1 X146.378 Y81.635 E12.93761
G1 X146.338 Y82.139 E12.98806
G1 X146.201 Y82.682 E13.04394
G1 X144.747 Y86.876 E13.48685
G1 X143.192 Y92.159 E14.03635
G1 X141.931 Y97.538 E14.58762
G1 X141.435 Y100.172 E14.85507
G1 X140.643 Y105.598 E15.40221
G1 X140.159 Y111.055 E15.94885
G1 X140.035 Y113.767 E16.21974
G1 X139.973 Y152.294 E20.06398
G1 X139.932 Y152.798 E20.11444
G1 X139.813 Y153.289 E20.16485
G1 X139.683 Y153.62 E20.20033
G1 X139.489 Y154.044 E20.24686
G1 X139.243 Y154.486 E20.29733
G1 X138.93 Y154.884 E20.34785
G1 X138.627 Y155.172 E20.38956
G1 X138.304 Y155.441 E20.43151
G1 X137.891 Y155.733 E20.48197
G1 X137.437 Y155.956 E20.53244
G1 X137.163 Y156.051 E20.56138
G1 X136.811 Y156.155 E20.598
G1 X136.316 Y156.259 E20.64847
G1 X135.904 Y156.286 E20.68967
G1 X54.047 Y156.281 E28.8574
G1 X53.543 Y156.241 E28.90784
G1 X53.051 Y156.122 E28.95835
G1 X52.719 Y155.992 E28.99393
G1 X52.239 Y155.773 E29.04657
G1 X51.797 Y155.528 E29.097
G1 X51.399 Y155.216 E29.14746
G1 X51.073 Y154.867 E29.19511
G1 X50.823 Y154.556 E29.23492
G1 X50.538 Y154.138 E29.28541
G1 X50.245 Y153.448 E29.3602
G1 X50.144 Y153.102 E29.39617
G1 X50.041 Y152.607 E29.44662
G1 X50.016 Y152.2 E29.48731
G1 X50.064 Y118.176 E32.88224
G1 X50.105 Y117.673 E32.93259
G1 X50.165 Y117.383 E32.96214
G1 X51.61 Y111.774 E33.54008
G1 X52.168 Y109.143 E33.80845
G1 X53.079 Y103.728 E34.35635
G1 X53.682 Y98.274 E34.90387
G1 X53.974 Y92.828 E35.44805
G1 X53.957 Y87.352 E35.99445
G1 X53.605 Y81.338 E36.59556
G1 X53.6 Y81.15 E36.61432
G1 X53.61 Y49.089 E39.81338
G1 X53.65 Y48.585 E39.86383
G1 X53.769 Y48.094 E39.91424
G1 X53.964 Y47.627 E39.96474
G1 X54.23 Y47.197 E40.01519
G1 X54.56 Y46.814 E40.06564
G1 F1500 E33.56564
G0 F3600 X90.935 Y41.998
G0 X92.205 Y41.998
G0 X92.452 Y41.379
G0 X92.534 Y41.436
;TYPE:WALL-INNER
G1 F1500 E40.06564
G1 F1800 X92.521 Y41.459 E40.06827
G1 X92.386 Y41.694 E40.09531
G1 X92.251 Y41.928 E40.12227
G1 X92.2 Y42.017 E40.1325
G1 X92.2 Y41.9
G1 X92.224 Y41.602
G1 X92.277 Y41.375
G1 X92.289 Y41.327
G1 X92.399 Y41.064 E40.15825
G1 X92.545 Y40.825 E40.1862
G1 X92.701 Y40.642 E40.21019
G1 X92.732 Y40.606 E40.21493
G1 X92.944 Y40.424 E40.24281
G1 X93.18 Y40.28 E40.2704
G1 X93.427 Y40.178 E40.29706
G1 X93.448 Y40.169 E40.29934
G1 X93.469 Y40.164 E40.3015
G1 X93.717 Y40.105 E40.32693
G1 X94.02 Y40.081 E40.35726
G1 X94.13 Y40.081 E40.36824
G1 X94.048 Y40.128
G1 X93.813 Y40.266
G1 X93.584 Y40.4
G1 X93.533 Y40.43
G1 X93.402 Y40.541 E40.37576
G1 X93.194 Y40.717 E40.40073
G1 X92.99 Y40.89 E40.42622
G1 X92.84 Y41.07 E40.4485
G1 X92.662 Y41.283 E40.47211
G1 X92.534 Y41.436 E40.47816
G1 F1500 E33.97816
G0 F3600 X92.452 Y41.379
G0 X92.596 Y41.233
G0 X93.522 Y40.414
G0 X94.265 Y41.467
G0 X97.076 Y41.204
G0 X97.679 Y40.086
G0 X98.278 Y40.317
G0 X98.222 Y40.399
G1 F1500 E40.47816
G1 F1800 X97.66 Y40.081 E40.54259
G1 X98.222 Y40.081 E40.56355
G1 X98.336 Y40.081 E40.57493
G1 X110.78 Y40.081 E41.8166
G1 X111.083 Y40.105 E41.84693
G1 X111.352 Y40.169 E41.87452
G1 X111.62 Y40.28 E41.90346
G1 X111.856 Y40.424 E41.93105
G1 X112.068 Y40.606 E41.95892
G1 X112.255 Y40.825 E41.98766
G1 X112.401 Y41.064 E42.0156
G1 X112.511 Y41.327 E42.04405
G1 X112.576 Y41.602 E42.07224
G1 X112.579 Y41.645 E42.07655
G1 X112.579 Y41.647 E42.07675
G1 X112.6 Y41.9 E42.10208
G1 X112.6 Y42.084 E42.12044
G1 X112.6 Y42.275 E42.13949
G1 X112.497 Y42.084
G1 X112.447 Y42.02
G1 X112.294 Y41.822 E42.14581
G1 X112.182 Y41.679 E42.16167
G1 X112.181 Y41.678 E42.16181
G1 X111.805 Y41.333 E42.21272
G1 X111.377 Y41.053 E42.26376
G1 X110.907 Y40.846 E42.315
G1 X110.41 Y40.721 E42.36614
G1 X109.924 Y40.681 E42.41479
G1 X98.564 Y40.681 E43.5483
G1 X98.31 Y40.471 E43.58118
G1 X98.222 Y40.399 E43.59143
G1 F1500 E37.09143
G0 F3600 X98.278 Y40.317
G0 X109.924 Y40.662
G0 X109.876 Y41.945
G0 X111.581 Y44.513
G0 X112.596 Y45.305
G0 X112.53 Y48.751
G0 X112.6 Y48.681
G1 F1500 E43.59143
G1 F1800 X142.179 Y48.681 E46.54283
G1 X142.263 Y48.688 E46.55124
G1 X142.38 Y48.726 E46.56352
G1 X142.434 Y48.759 E46.56983
G1 X142.522 Y48.847 E46.58225
G1 X142.553 Y48.897 E46.58812
G1 X142.579 Y48.961 E46.59501
G1 X142.594 Y49.021 E46.60118
G1 X142.6 Y49.101 E46.60919
G1 X142.6 Y81.461 E49.83808
G1 X142.593 Y81.544 E49.84639
G1 X142.556 Y81.66 E49.85854
G1 X142.522 Y81.715 E49.86499
G1 X142.434 Y81.803 E49.87741
G1 X142.379 Y81.837 E49.88386
G1 X142.328 Y81.858 E49.88937
G1 X142.259 Y81.874 E49.89643
G1 X142.176 Y81.881 E49.90475
G1 X112.2 Y81.881 E52.89576
G1 X112.2 Y84.652 E53.17225
G1 X112.2 Y85.084 E53.21536
G1 X112.2 Y85.275 E53.23442
G1 X112.097 Y85.084
G1 X111.832 Y84.743 E53.26235
G1 X111.782 Y84.679 E53.27045
G1 X111.405 Y84.333 E53.32151
G1 X110.977 Y84.053 E53.37254
G1 X110.507 Y83.846 E53.42379
G1 X110.01 Y83.721 E53.47492
G1 X109.524 Y83.681 E53.52358
G1 X98.164 Y83.681 E54.65708
G1 X97.822 Y83.399 E54.70131
G1 X97.202 Y83.048 E54.7724
G1 X96.53 Y82.81 E54.84354
G1 X95.828 Y82.692 E54.91457
G1 X95.117 Y82.696 E54.98551
G1 X94.416 Y82.824 E55.05661
G1 X93.747 Y83.071 E55.12777
G1 X93.133 Y83.43 E55.19874
G1 X92.59 Y83.89 E55.26975
G1 X92.191 Y84.367 E55.3318
G1 X92.134 Y84.436 E55.34073
G1 X91.8 Y85.017 E55.4076
G1 X91.8 Y84.436 E55.43044
G1 X91.8 Y84.346 E55.43872
G1 X91.8 Y81.881 E55.68468
G1 X61.824 Y81.881 E58.6757
G1 X61.741 Y81.874 E58.68401
G1 X61.621 Y81.837 E58.69654
G1 X61.566 Y81.803 E58.70299
G1 X61.478 Y81.715 E58.71541
G1 X61.444 Y81.66 E58.72186
G1 X61.421 Y81.602 E58.72809
G1 X61.407 Y81.544 E58.73404
G1 X61.355 Y80.881 E58.8004
G1 X57.4 Y80.881 E59.19503
G1 X57.4 Y49.681 E62.30818
G1 X61.355 Y49.681 E62.70281
G1 X61.406 Y49.021 E62.76886
G1 X61.447 Y48.897 E62.78189
G1 X61.478 Y48.847 E62.78776
G1 X61.566 Y48.759 E62.80018
G1 X61.62 Y48.726 E62.8065
G1 X61.679 Y48.702 E62.81285
G1 X61.737 Y48.688 E62.81881
G1 X61.821 Y48.681 E62.82722
G1 X92.2 Y48.681 E65.85845
G1 X92.2 Y46.216 E66.1044
G1 X92.2 Y46.126 E66.11338
G1 X92.2 Y45.545 E66.17136
G1 X92.534 Y46.126 E66.20308
G1 X92.591 Y46.195 E66.21132
G1 X92.99 Y46.672 E66.27337
G1 X93.533 Y47.131 E66.34431
G1 X94.147 Y47.49 E66.41528
G1 X94.816 Y47.737 E66.48644
G1 X95.517 Y47.865 E66.55754
G1 X96.228 Y47.869 E66.62849
G1 X96.93 Y47.751 E66.69952
G1 X97.601 Y47.514 E66.77052
G1 X98.221 Y47.164 E66.84156
G1 X98.564 Y46.881 E66.88593
G1 X109.924 Y46.881 E68.01944
G1 X110.41 Y46.841 E68.0681
G1 X110.907 Y46.715 E68.11925
G1 X111.376 Y46.509 E68.17037
G1 X111.805 Y46.229 E68.22148
G1 X112.182 Y45.882 E68.27261
G1 X112.232 Y45.818 E68.28071
G1 X112.497 Y45.477 E68.3238
G1 X112.6 Y45.286 E68.34546
G1 X112.6 Y45.477
G1 X112.6 Y45.909 E68.37343
G1 X112.6 Y48.681 E68.65002
G1 F1500 E62.15002
G0 F3600 X112.53 Y48.751
G0 X98.17 Y83.663
G0 X98.17 Y84.946
G0 X98.17 Y88.616
G0 X98.17 Y89.899
G0 X97.877 Y90.246
G0 X97.821 Y90.164
G1 F1500 E68.65002
G1 F1800 X97.909 Y90.091 E68.66143
G1 X98.164 Y89.881 E68.69439
G1 X109.524 Y89.881 E69.8279
G1 X110.01 Y89.841 E69.87655
G1 X110.508 Y89.715 E69.92781
G1 X110.977 Y89.508 E69.97896
G1 X111.405 Y89.228 E70.03
G1 X111.782 Y88.882 E70.08105
G1 X111.893 Y88.739 E70.09912
G1 X111.919 Y88.706 E70.10331
G1 X111.958 Y88.656 E70.10964
G1 X112.046 Y88.543 E70.12393
G1 X112.097 Y88.477 E70.13225
G1 X112.2 Y88.286 E70.1539
G1 X112.2 Y88.477
G1 X112.2 Y88.62 E70.16425
G1 X112.2 Y88.662 E70.16639
G1 X112.18 Y88.915 E70.1832
G1 X112.18 Y88.916 E70.1833
G1 X112.176 Y88.959 E70.1874
G1 X112.111 Y89.234 E70.21559
G1 X112.001 Y89.497 E70.24404
G1 X111.853 Y89.74 E70.27243
G1 X111.671 Y89.952 E70.30031
G1 X111.456 Y90.137 E70.32861
G1 X111.22 Y90.281 E70.35619
G1 X110.952 Y90.392 E70.38514
G1 X110.683 Y90.456 E70.41273
G1 X110.377 Y90.481 E70.44336
G1 X97.936 Y90.481 E71.68473
G1 X97.821 Y90.481 E71.69509
G1 X97.259 Y90.481 E71.75117
G1 X97.821 Y90.164 E71.78039
G1 F1500 E65.28039
G0 F3600 X97.877 Y90.246
G0 X97.278 Y90.476
G0 X96.68 Y89.356
G0 X94.292 Y89.343
G0 X93.713 Y90.476
G0 X93.076 Y90.212
G0 X93.133 Y90.131
G1 F1500 E71.78039
G1 F1800 X93.183 Y90.16 E71.78615
G1 X93.41 Y90.293 E71.81241
G1 X93.651 Y90.434 E71.84027
G1 X93.732 Y90.481 E71.84961
G1 X93.623 Y90.481
G1 X93.317 Y90.456
G1 X93.07 Y90.398 E71.84982
G1 X93.048 Y90.392
G1 X93.029 Y90.384
G1 X92.78 Y90.281 E71.87637
G1 X92.544 Y90.137 E71.90395
G1 X92.34 Y89.962 E71.93077
G1 X92.329 Y89.952 E71.93225
G1 X92.302 Y89.921 E71.93636
G1 X92.147 Y89.74 E71.96013
G1 X91.999 Y89.497 E71.98852
G1 X91.889 Y89.234 E72.01697
G1 X91.878 Y89.188 E72.02169
G1 X91.824 Y88.959 E72.04516
G1 X91.8 Y88.662 E72.0749
G1 X91.8 Y88.545 E72.08657
G1 X91.85 Y88.632
G1 X91.984 Y88.865
G1 X92.119 Y89.1
G1 X92.134 Y89.126
G1 X92.261 Y89.278 E72.09521
G1 X92.441 Y89.493 E72.12052
G1 X92.59 Y89.672 E72.14254
G1 X92.792 Y89.843 E72.16781
G1 X93 Y90.019 E72.19093
G1 X93.133 Y90.131 E72.19426
G1 F1500 E65.69426
G0 F3600 X93.076 Y90.212
G0 X93.713 Y90.476
G0 X94.292 Y89.343
G0 X96.68 Y89.356
G0 X97.278 Y90.476
G0 X97.911 Y90.219
G0 X97.594 Y89.833
;TYPE:WALL-OUTER
G1 F1500 E72.19426
G1 F1800 X98.02 Y89.481 E72.2494
G1 X109.508 Y89.481 E73.39568
G1 X109.944 Y89.445 E73.43933
G1 X110.377 Y89.335 E73.48391
G1 X110.786 Y89.155 E73.5285
G1 X111.159 Y88.911 E73.57297
G1 X111.487 Y88.61 E73.61739
G1 X111.761 Y88.258 E73.6619
G1 X111.973 Y87.866 E73.70637
G1 X112.119 Y87.443 E73.75102
G1 X112.191 Y87.003 E73.79551
G1 X112.191 Y86.558 E73.83991
G1 X112.119 Y86.118 E73.8844
G1 X111.973 Y85.695 E73.92905
G1 X111.761 Y85.303 E73.97351
G1 X111.487 Y84.951 E74.01802
G1 X111.159 Y84.65 E74.06244
G1 X110.786 Y84.406 E74.10692
G1 X110.377 Y84.226 E74.15151
G1 X109.944 Y84.117 E74.19606
G1 X109.508 Y84.081 E74.23971
G1 X98.02 Y84.081 E75.38599
G1 X97.594 Y83.73 E75.44106
G1 X97.035 Y83.413 E75.50519
G1 X96.429 Y83.199 E75.56931
G1 X95.796 Y83.092 E75.63337
G1 X95.154 Y83.096 E75.69743
G1 X94.522 Y83.211 E75.76153
G1 X93.919 Y83.434 E75.82568
G1 X93.365 Y83.758 E75.88971
G1 X92.875 Y84.173 E75.95379
G1 X92.463 Y84.666 E76.01789
G1 X92.143 Y85.222 E76.0819
G1 X91.924 Y85.827 E76.1461
G1 X91.813 Y86.46 E76.21023
G1 X91.813 Y87.101 E76.27419
G1 X91.924 Y87.735 E76.33841
G1 X92.143 Y88.339 E76.40252
G1 X92.463 Y88.896 E76.46661
G1 X92.875 Y89.389 E76.53072
G1 X93.365 Y89.803 E76.59473
G1 X93.919 Y90.127 E76.65877
G1 X94.522 Y90.35 E76.72292
G1 X95.154 Y90.465 E76.78701
G1 X95.796 Y90.469 E76.85107
G1 X96.429 Y90.362 E76.91513
G1 X97.035 Y90.148 E76.97926
G1 X97.594 Y89.833 E77.04328
G0 F3600 X97.748 Y89.706
G1 F1500 E70.54328
G0 F3600 X98.065 Y90.092
G0 X98.24 Y89.901
G0 X98.24 Y88.616
G0 X98.24 Y84.946
G0 X98.24 Y83.661
G0 X98.24 Y47.268
G0 X97.994 Y46.833
G1 F1500 E77.04328
G1 F1800 X98.42 Y46.481 E77.09842
G1 X109.908 Y46.481 E78.2447
G1 X110.344 Y46.445 E78.28835
G1 X110.777 Y46.335 E78.33293
G1 X111.185 Y46.156 E78.37738
G1 X111.559 Y45.912 E78.42194
G1 X111.887 Y45.61 E78.46643
G1 X112.161 Y45.258 E78.51094
G1 X112.373 Y44.866 E78.55541
G1 X112.519 Y44.443 E78.60006
G1 X112.591 Y44.003 E78.64454
G1 X112.591 Y43.558 E78.68895
G1 X112.519 Y43.118 E78.73343
G1 X112.373 Y42.695 E78.77808
G1 X112.161 Y42.303 E78.82255
G1 X111.887 Y41.951 E78.86706
G1 X111.559 Y41.65 E78.91148
G1 X111.186 Y41.406 E78.95596
G1 X110.777 Y41.226 E79.00054
G1 X110.344 Y41.117 E79.0451
G1 X109.908 Y41.081 E79.08875
G1 X98.42 Y41.081 E80.23503
G1 X97.994 Y40.73 E80.2901
G1 X97.435 Y40.413 E80.35422
G1 X96.829 Y40.199 E80.41835
G1 X96.196 Y40.092 E80.48241
G1 X95.554 Y40.096 E80.54647
G1 X94.922 Y40.211 E80.61056
G1 X94.319 Y40.434 E80.67471
G1 X93.765 Y40.758 E80.73875
G1 X93.275 Y41.173 E80.80282
G1 X92.863 Y41.666 E80.86693
G1 X92.543 Y42.222 E80.93094
G1 X92.324 Y42.827 E80.99514
G1 X92.213 Y43.46 E81.05927
G1 X92.213 Y44.101 E81.12323
G1 X92.324 Y44.735 E81.18745
G1 X92.543 Y45.339 E81.25156
G1 X92.863 Y45.896 E81.31565
G1 X93.275 Y46.389 E81.37976
G1 X93.765 Y46.803 E81.44377
G1 X94.319 Y47.127 E81.5078
G1 X94.922 Y47.35 E81.57196
G1 X95.554 Y47.465 E81.63605
G1 X96.196 Y47.469 E81.70011
G1 X96.829 Y47.362 E81.76417
G1 X97.435 Y47.148 E81.8283
G1 X97.994 Y46.833 E81.89232
G0 F3600 X98.148 Y46.706
G0 X98.465 Y47.092
G0 X112.5 Y48.281
G0 X113 Y48.281
G1 F1800 X142.198 Y48.281 E84.80571
G1 X142.324 Y48.291 E84.81832
G1 X142.445 Y48.32 E84.83073
G1 X142.562 Y48.368 E84.84335
G1 X142.671 Y48.435 E84.85612
G1 X142.765 Y48.516 E84.8685
G1 X142.846 Y48.61 E84.88088
G1 X142.913 Y48.719 E84.89365
G1 X142.961 Y48.837 E84.90636
G1 X142.99 Y48.956 E84.91858
G1 X143 Y49.081 E84.93109
G1 X143 Y81.481 E88.16398
G1 X142.99 Y81.605 E88.17639
G1 X142.961 Y81.726 E88.18881
G1 X142.912 Y81.845 E88.20165
G1 X142.848 Y81.949 E88.21383
G1 X142.765 Y82.046 E88.22657
G1 X142.671 Y82.127 E88.23895
G1 X142.562 Y82.194 E88.25172
G1 X142.449 Y82.24 E88.26389
G1 X142.32 Y82.271 E88.27713
G1 X142.195 Y82.281 E88.28964
G1 X112.6 Y82.281 E91.24264
G1 X112.6 Y88.681 E91.88124
G1 X112.573 Y89.02 E91.91517
G1 X112.492 Y89.36 E91.95005
G1 X112.358 Y89.68 E91.98466
G1 X112.179 Y89.974 E92.01901
G1 X111.955 Y90.236 E92.0534
G1 X111.692 Y90.461 E92.08794
G1 X111.4 Y90.64 E92.12211
G1 X111.078 Y90.773 E92.15687
G1 X110.744 Y90.853 E92.19114
G1 X110.397 Y90.881 E92.22588
G1 X93.603 Y90.881 E93.90159
G1 X93.256 Y90.853 E93.93633
G1 X92.922 Y90.773 E93.9706
G1 X92.6 Y90.64 E94.00536
G1 X92.308 Y90.461 E94.03953
G1 X92.045 Y90.236 E94.07407
G1 X91.821 Y89.974 E94.10846
G1 X91.642 Y89.68 E94.14281
G1 X91.508 Y89.36 E94.17742
G1 X91.427 Y89.02 E94.2123
G1 X91.4 Y88.681 E94.24623
G1 X91.4 Y82.281 E94.88483
G1 X61.805 Y82.281 E97.83783
G1 X61.68 Y82.271 E97.85034
G1 X61.551 Y82.24 E97.86358
G1 X61.438 Y82.194 E97.87575
G1 X61.329 Y82.127 E97.88852
G1 X61.235 Y82.046 E97.9009
G1 X61.152 Y81.949 E97.91364
G1 X61.088 Y81.845 E97.92582
G1 X61.039 Y81.726 E97.93866
G1 X61.01 Y81.605 E97.95108
G1 X60.985 Y81.281 E97.9835
G1 X57 Y81.281 E98.38113
G1 X57 Y49.281 E101.5741
G1 X60.985 Y49.281 E101.97173
G1 X61.01 Y48.956 E102.00425
